X: 513
T: Mai bianshi
L: 1/16
M: 2/4
K: A
a2> c'2e4 [I:setbarnb 1]| 
a2 c' ba4 | 
c'2> b2 c'3 b | 
f e B ce4 | 
e2 e f b2 b2 | 
f2 g f e2 c2 | 
e c e f b2 b2 | 
f e f ae4 | 
a b e' ba4 | 
e c e f b2 b2 | 
f e f ae4 |]

@@@ Tune index: 9387
